optimized/line/money-euro-box.svg

<svg xmlns="http://www.w3.org/2000/svg" fill="currentColor" viewBox="0 0 24 24" aria-hidden="true">
  <path d="M3.005 3.003h18a1 1 0 011 1v16a1 1 0 01-1 1h-18a1 1 0 01-1-1v-16a1 1 0 011-1zm1 2v14h16v-14h-16zm6.05 6h4.95v2h-4.95a2.5 2.5 0 004.064 1.409l1.7 1.134a4.5 4.5 0 01-7.787-2.543H7.005v-2h1.027A4.5 4.5 0 0115.82 8.46l-1.701 1.134a2.5 2.5 0 00-4.064 1.41z"/>
</svg>

<svg xmlns="http://www.w3.org/2000/svg" viewBox="0 0 24 24" aria-hidden="true">
  <path fill="none" d="M0 0h24v24H0z"/>
  <path d="M3 3h18a1 1 0 011 1v16a1 1 0 01-1 1H3a1 1 0 01-1-1V4a1 1 0 011-1zm1 2v14h16V5H4zm6.05 6H15v2h-4.95a2.5 2.5 0 004.064 1.41l1.7 1.133A4.5 4.5 0 018.028 13H7v-2h1.027a4.5 4.5 0 017.788-2.543L14.114 9.59A2.5 2.5 0 0010.05 11z"/>
</svg>
